icons/varicose_vein.svg

<svg width="48" height="48" viewBox="0 0 48 48" fill="none" xmlns="http://www.w3.org/2000/svg">
<path fill-rule="evenodd" clip-rule="evenodd" d="M22.8595 4H20.931L19.9812 10.5414L23.888 35.3044C23.888 35.3044 16.2348 38.6526 14.7999 38.6526C14.3012 38.6526 13.8025 38.5371 13.3251 38.4264C12.4288 38.2187 11.6074 38.0283 11.0011 38.6525C10.072 39.6092 9.31357 40.7838 11.0009 42.4788C12.6882 44.1737 15.7643 44.3904 19.5834 43.4356C24.5569 42.1922 26.1006 42.7869 27.3763 43.2784C28.0635 43.5431 28.673 43.7779 29.699 43.6793C32.2576 43.4332 33.1527 42.0111 33.7453 41.0698C33.8313 40.9332 33.9112 40.8062 33.9886 40.6949C34.5994 39.8169 34.1339 36.3661 31.9417 34.8209C31.7814 33.9627 32.9826 27.9175 34.4601 22.6628C36.7682 14.4547 33.9519 8.9465 32.0921 5.30895C31.895 4.92356 31.7086 4.34438 31.5403 4H29.3681L30.3444 6.10402L30.3485 6.1041L30.387 6.17977C30.6088 6.61515 30.8401 7.06928 31.0718 7.5444L31.0812 7.56302C32.7658 11.0221 34.4606 15.5933 32.6184 22.1449C31.8661 24.8201 31.1858 27.6902 30.7122 30.0075C30.4758 31.1648 30.2871 32.2026 30.167 33.0197C30.1072 33.4263 30.0611 33.7998 30.036 34.1167C30.0163 34.3659 29.989 34.7867 30.061 35.1721L30.2038 35.9366L30.8394 36.3846C31.4542 36.818 31.9279 37.6111 32.169 38.5059C32.2852 38.9372 32.3264 39.3202 32.3218 39.5915C32.3206 39.6646 32.3165 39.7191 32.3122 39.7572C32.1945 39.9323 32.1023 40.0798 32.0204 40.2107C31.8218 40.5285 31.6843 40.7483 31.3927 41.0267C31.075 41.3299 30.5567 41.6747 29.5158 41.7748C29.0872 41.8161 28.8327 41.7639 28.5515 41.6721C28.4079 41.6253 28.2756 41.5744 28.0882 41.5023L28.0867 41.5017L28.0136 41.4736L27.9106 41.4341C27.6429 41.332 27.3126 41.2103 26.9245 41.1024C25.2751 40.6438 23.1126 40.5812 19.1193 41.5795C15.3963 42.5103 13.2699 42.0462 12.3568 41.129C12.0573 40.8281 11.9551 40.6379 11.924 40.5636L11.921 40.556C11.9307 40.5348 11.948 40.5014 11.9782 40.4548C12.0323 40.3712 12.1093 40.2725 12.2177 40.1519C12.2577 40.1572 12.307 40.1649 12.3667 40.1758C12.5394 40.2074 12.6658 40.2371 12.8266 40.275C12.9578 40.3059 13.1122 40.3422 13.3329 40.3893C13.7276 40.4734 14.2405 40.5658 14.7999 40.5658C15.2492 40.5658 15.7357 40.4524 16.091 40.3585C16.4987 40.2508 16.9626 40.1043 17.4435 39.94C18.4084 39.6106 19.5345 39.1781 20.5926 38.7549C21.6551 38.3299 22.6695 37.9059 23.417 37.5888C23.7911 37.4301 24.0994 37.2977 24.3147 37.2048C24.4223 37.1583 24.5067 37.1217 24.5645 37.0966L24.6543 37.0575L26.008 36.4652L21.9161 10.5295L22.8595 4ZM24.6543 37.0575C24.6543 37.0575 24.6548 37.0572 23.888 35.3044L24.6543 37.0575ZM12.0746 40.1397C12.0712 40.1398 12.0696 40.14 12.0696 40.14L12.0716 40.1399L12.0746 40.1397Z" fill="black"/>
<path d="M24.5615 8.92034C24.9405 8.55222 25.5461 8.56099 25.9142 8.93993C26.3407 9.37897 26.6467 9.8162 26.841 10.2624C27.5752 9.85662 28.5192 9.60107 29.6516 9.7655C30.1744 9.84142 30.5367 10.3268 30.4608 10.8496C30.3849 11.3725 29.8995 11.7348 29.3767 11.6588C28.0822 11.4709 27.2138 12.2403 26.9011 12.6924C26.8714 12.7938 26.8426 12.8862 26.8156 12.9727C26.7133 13.3004 26.6374 13.5433 26.6439 13.8712C26.6508 14.2242 26.7759 14.7411 27.474 15.4424C27.8467 15.8169 27.8453 16.4225 27.4709 16.7953C27.0964 17.168 26.4907 17.1666 26.118 16.7921C25.129 15.7985 24.7491 14.8296 24.731 13.9087C24.7177 13.2315 24.9242 12.5878 25.0386 12.2311C25.0629 12.1554 25.0831 12.0925 25.0961 12.0451C25.187 11.7135 25.2106 11.4841 25.1635 11.2617C25.1173 11.0436 24.9786 10.7226 24.5419 10.273C24.1738 9.89409 24.1826 9.28847 24.5615 8.92034Z" fill="black"/>
<path fill-rule="evenodd" clip-rule="evenodd" d="M29.0768 20.6166C29.2255 20.1096 29.757 19.8192 30.264 19.9678C30.7709 20.1165 31.0614 20.648 30.9127 21.155C30.4809 22.6273 29.273 23.0112 28.9013 23.1294C28.8821 23.1354 28.8652 23.1408 28.8507 23.1456C28.7855 23.1672 28.7206 23.1836 28.6565 23.1956C28.4619 23.2514 28.1824 23.3797 27.9556 23.5946C27.721 23.8169 27.5335 24.1352 27.5518 24.6423C27.571 25.1702 27.1585 25.6138 26.6306 25.6329C26.1026 25.6521 25.6591 25.2396 25.6399 24.7116C25.6025 23.6816 25.9851 22.8923 26.5074 22.3384C26.2522 22.1012 26.0184 21.8308 25.8253 21.5483C25.5272 21.1121 25.6391 20.5168 26.0753 20.2187C26.5114 19.9206 27.1067 20.0325 27.4048 20.4687C27.5989 20.7527 27.8646 21.0134 28.1085 21.175C28.2124 21.2438 28.2921 21.2811 28.3422 21.2988C28.4889 21.2504 28.6095 21.2068 28.7337 21.1209C28.8575 21.0352 28.9943 20.8977 29.0768 20.6166ZM28.3808 21.3102C28.3834 21.3108 28.3846 21.3109 28.3846 21.3109L28.3808 21.3102Z" fill="black"/>
</svg>

<svg
  xmlns="http://www.w3.org/2000/svg"
  width="24"
  height="24"
  viewBox="0 0 24 24"
  fill="none"
  stroke="currentColor"
  stroke-width="2"
  stroke-linecap="round"
  stroke-linejoin="round"
>
  <path
    fill-rule="evenodd"
    d="M22.86 4H20.93l-.95 6.541 3.907 24.763s-7.653 3.349-9.088 3.349c-.499 0-.998-.116-1.475-.227-.896-.207-1.718-.398-2.324.227-.929.956-1.687 2.13 0 3.826 1.687 1.695 4.763 1.911 8.582.957 4.974-1.244 6.518-.65 7.793-.158.688.265 1.297.5 2.323.401 2.559-.246 3.454-1.668 4.046-2.61q.128-.206.244-.374c.61-.878.145-4.329-2.047-5.874-.16-.858 1.04-6.903 2.518-12.158 2.308-8.208-.508-13.716-2.368-17.354-.197-.385-.383-.965-.552-1.309h-2.172l.976 2.104h.005l.038.076q.335.653.685 1.364l.01.019c1.684 3.46 3.379 8.03 1.536 14.582a117 117 0 0 0-1.906 7.863 58 58 0 0 0-.545 3.012c-.06.406-.106.78-.131 1.097-.02.249-.047.67.025 1.055l.143.765.635.448c.615.433 1.089 1.226 1.33 2.12.116.432.157.815.153 1.087a2 2 0 0 1-.01.165c-.117.175-.21.323-.292.454-.198.318-.336.537-.627.816-.318.303-.836.648-1.877.748a2.1 2.1 0 0 1-.964-.103 9 9 0 0 1-.464-.17h-.001l-.073-.028-.103-.04a11 11 0 0 0-.987-.332c-1.649-.458-3.811-.52-7.805.478-3.723.93-5.85.466-6.762-.451-.3-.3-.402-.491-.433-.565l-.003-.008a1 1 0 0 1 .057-.101c.054-.084.131-.182.24-.303q.06.008.149.024c.172.031.299.061.46.099.13.03.285.067.506.114a7 7 0 0 0 1.467.177c.45 0 .936-.114 1.291-.208.408-.107.872-.254 1.352-.418.965-.33 2.092-.762 3.15-1.185a151 151 0 0 0 3.971-1.658l.09-.04 1.354-.592-4.092-25.936zm1.794 33.058-.766-1.754zm-12.58 3.082h-.004.005"
    clip-rule="evenodd"
  />
  <path d="M24.562 8.92a.957.957 0 0 1 1.352.02c.427.439.733.876.927 1.322a4.4 4.4 0 0 1 2.81-.497.957.957 0 0 1-.274 1.894 2.59 2.59 0 0 0-2.476 1.033l-.085.28c-.103.328-.179.571-.172.9.007.352.132.87.83 1.57a.957.957 0 0 1-1.356 1.35c-.989-.994-1.369-1.962-1.387-2.883-.013-.678.193-1.321.308-1.678q.037-.115.057-.186c.091-.332.115-.56.067-.783-.046-.218-.184-.54-.621-.989a.957.957 0 0 1 .02-1.353" />
  <path
    fill-rule="evenodd"
    d="M29.077 20.617a.957.957 0 0 1 1.836.538c-.432 1.472-1.64 1.856-2.012 1.974l-.05.017q-.098.032-.194.05a1.8 1.8 0 0 0-.701.399c-.235.222-.422.54-.404 1.047a.957.957 0 1 1-1.912.07c-.038-1.03.345-1.82.867-2.374a4.8 4.8 0 0 1-.682-.79.957.957 0 0 1 1.58-1.08c.194.285.46.545.703.707.104.069.184.106.234.124.147-.049.268-.092.392-.178.123-.086.26-.223.343-.504m-.696.693h.004z"
    clip-rule="evenodd"
  />
</svg>
